public/logos/SJ.svg

<svg height="897" width="1343" xmlns="http://www.w3.org/2000/svg"><path d="m638 878.39503c-49.26526-4.25948-86.70722-14.16293-124-32.79816-55.20566-27.58632-95.27282-66.88192-127.5531-125.09687-20.44438-36.86984-26.82074-44.50533-42.34162-50.70276-5.40931-2.15993-7.1261-2.25902-49.10528-2.83441-47.43399-.65015-47.57618-.6667-60-6.98464-22.82574-11.60766-47.87388-39.23128-69.85823-77.04114-6.19435-10.65338-7.4679-15.21419-4.55998-16.33006 2.72081-1.04407 152.121-.65755 166.91821.43185 43.66156 3.21444 75.1162 13.25353 100.68972 32.13624 20.18291 14.90244 33.64227 32.82479 54.31471 72.32492 14.118 26.97614 23.4055 39.38431 39.76794 53.13026 28.86629 24.25033 66.91499 41.31424 109.22763 48.98592 15.52402 2.81466 50.88217 2.59008 67-.42555 47.4121-8.87076 89.21387-29.78398 117.62314-58.84628 11.47176-11.73545 16.97447-19.99482 31.84854-47.8035 17.36719-32.46984 28.74232-48.37208 43.69185-61.08048 27.11892-23.05344 60.59044-34.86958 108.83647-38.42153 20.7398-1.5269 165.7516-1.38721 167.3.16116 2.0821 2.08208 1.3518 4.46606-4.446 14.51462-22.2999 38.64928-48.3711 67.3116-71.6428 78.76287-12.1878 5.9973-16.6106 6.48566-58.912 6.50515-39.78015.01832-44.40294.42253-53.49141 4.67723-11.53994 5.40234-19.70896 15.8482-37.8036 48.34013-17.94353 32.22057-32.97585 52.45083-54.63942 73.53284-15.51933 15.10272-24.63215 22.49762-42.06872 34.13806-38.55601 25.73951-85.22769 42.49853-136.2062 48.90937-11.47407 1.44293-60.35572 2.69961-70.58985 1.81476zm-98.14753-215.41054c-7.34486-3.88056-15.57385-16.63037-21.49719-33.30725-19.23271-54.14878-73.94959-96.61759-141.88142-110.12206-24.32865-4.8364-23.728-4.81318-140.97386-5.45117l-111-.60401-5.99328-2.25982c-14.67006-5.53148-33.351886-20.41755-47.774109-38.06741-13.776297-16.85938-31.837897-46.85006-30.427887-50.52448.611756-1.59422 11.851557-1.68188 178.924016-1.3955 176.72567.30293 178.38397.32414 191.27126 2.44606 68.33893 11.25215 116.44466 42.66863 140.99787 92.08168 11.50258 23.14882 15.39456 42.16567 16.21971 79.25208.84035 37.76932-1.57651 55.53374-8.73205 64.18256-4.77167 5.76747-12.47769 7.28559-19.13306 3.76932zm234.64753.60387c-10.9535-4.86832-14.49551-19.44773-14.47678-59.58836.01194-25.57315.88264-38.05486 3.59253-51.5 6.31135-31.31367 23.71856-61.54454 47.36985-82.26654 27.76873-24.32949 61.74042-39.17827 106.4465-46.527 12.96831-2.13172 14.42538-2.15042 191.2008-2.4536 168.9681-.2898 178.1675-.21538 178.8052 1.44652.9004 2.3464-4.8383 13.49611-14.7678 28.69209-20.7282 31.72237-40.6201 50.60458-62.6703 59.48944l-6.5 2.61909-111 .60459c-119.09418.64868-117.41531.57833-144 6.03396-13.17962 2.70467-36.58194 10.46136-48.74167 16.15541-42.96391 20.11873-76.08875 54.14412-89.76562 92.20604-4.1703 11.6057-10.1217 23.12242-14.73226 28.50882-6.01351 7.02544-14.03634 9.56809-20.76045 6.57954zm-68.83489-248.58041c-9.01986-1.13376-9.66511-1.4527-9.66511-4.7773 0-2.38559.7442-3.19368 4.72012-5.12533 13.30957-6.46629 30.36689-19.83102 41.2602-32.32814 13.09335-15.02108 21.4733-31.17566 26.30682-50.71341 2.099-8.48442 2.12166-9.86327 2.44559-148.81377l.32696-140.25h44.97016 44.97015v138.53941c0 91.95607-.36062 141.77346-1.07248 148.1575-1.5291 13.71311-5.12526 26.87811-10.36152 37.93196-14.70917 31.05136-39.62685 48.44535-79.54572 55.52751-12.91091 2.29058-51.93107 3.41323-64.35517 1.85157zm-148.66511-27.63572c-29.26253-1.50051-57.38291-7.12744-77.75-15.5579l-7.25-3.00097v-28.90668c0-15.89867.23007-28.90668.51126-28.90668s5.79369 1.60791 12.25 3.57314c24.38295 7.42189 52.64032 13.25572 72.23874 14.91393 9.55436.80838 30.79-1.00367 40.31711-3.44029 15.86395-4.05732 25.22005-11.20697 28.23437-21.57587 3.45448-11.88299.38231-22.49364-9.32269-32.19864-10.89858-10.89858-27.38097-19.5827-63.22879-33.31353-31.50196-12.06623-44.25565-18.78542-60.30899-31.77337-13.8342-11.19256-26.07651-30.19864-30.71538-47.68537-3.23365-12.18959-3.82154-35.86877-1.20423-48.50465 9.38264-45.297701 45.40249-73.067973 106.38264-82.017958 41.45775-6.084706 84.85922-1.995741 118.59596 11.173233l10.25 4.001037v29.424169c0 16.183293-.1474 29.424169-.32755 29.424169-.18016 0-4.40715-1.76941-9.39331-3.932032-13.96931-6.058821-35.202-12.835699-49.15054-15.687471-11.3302-2.316454-14.22222-2.531638-28.1286-2.092939-24.17509.762642-38.05644 5.60549-48.54736 16.936938-12.47691 13.476554-11.14705 30.568224 3.42039 43.959524 11.31023 10.39706 25.31689 17.17258 59.52826 28.79593 33.03277 11.22292 54.68284 23.32237 71.60956 40.02005 17.84363 17.60217 25.98915 36.37149 25.98915 59.88548 0 66.74246-41.63584 106.98928-119 115.03005-11.01931 1.14528-35.57281 1.94011-45 1.4567z"/></svg>

<?xml version="1.0" encoding="UTF-8" standalone="no"?>
<!-- Created with Inkscape (http://www.inkscape.org/) -->
<svg
   xmlns:dc="http://purl.org/dc/elements/1.1/"
   xmlns:cc="http://web.resource.org/cc/"
   xmlns:rdf="http://www.w3.org/1999/02/22-rdf-syntax-ns#"
   xmlns:svg="http://www.w3.org/2000/svg"
   xmlns="http://www.w3.org/2000/svg"
   xmlns:sodipodi="http://sodipodi.sourceforge.net/DTD/sodipodi-0.dtd"
   xmlns:inkscape="http://www.inkscape.org/namespaces/inkscape"
   id="svg2178"
   sodipodi:version="0.32"
   inkscape:version="0.45.1"
   width="1343"
   height="897"
   version="1.0"
   sodipodi:docbase="C:\Users\Олег\Pictures\Wikipedia"
   sodipodi:docname="SJ.svg"
   inkscape:output_extension="org.inkscape.output.svg.inkscape">
  <metadata
     id="metadata2183">
    <rdf:RDF>
      <cc:Work
         rdf:about="">
        <dc:format>image/svg+xml</dc:format>
        <dc:type
           rdf:resource="http://purl.org/dc/dcmitype/StillImage" />
      </cc:Work>
    </rdf:RDF>
  </metadata>
  <defs
     id="defs2181" />
  <sodipodi:namedview
     inkscape:window-height="575"
     inkscape:window-width="901"
     inkscape:pageshadow="2"
     inkscape:pageopacity="0.0"
     guidetolerance="10.0"
     gridtolerance="10.0"
     objecttolerance="10.0"
     borderopacity="1.0"
     bordercolor="#666666"
     pagecolor="#ffffff"
     id="base"
     inkscape:zoom="0.42028986"
     inkscape:cx="671.5"
     inkscape:cy="448.5"
     inkscape:window-x="92"
     inkscape:window-y="92"
     inkscape:current-layer="svg2178" />
  <path
     style="fill:#000000"
     d="M 638,878.39503 C 588.73474,874.13555 551.29278,864.2321 514,845.59687 C 458.79434,818.01055 418.72718,778.71495 386.4469,720.5 C 366.00252,683.63016 359.62616,675.99467 344.10528,669.79724 C 338.69597,667.63731 336.97918,667.53822 295,666.96283 C 247.56601,666.31268 247.42382,666.29613 235,659.97819 C 212.17426,648.37053 187.12612,620.74691 165.14177,582.93705 C 158.94742,572.28367 157.67387,567.72286 160.58179,566.60699 C 163.3026,565.56292 312.70279,565.94944 327.5,567.03884 C 371.16156,570.25328 402.6162,580.29237 428.18972,599.17508 C 448.37263,614.07752 461.83199,631.99987 482.50443,671.5 C 496.62243,698.47614 505.90993,710.88431 522.27237,724.63026 C 551.13866,748.88059 589.18736,765.9445 631.5,773.61618 C 647.02402,776.43084 682.38217,776.20626 698.5,773.19063 C 745.9121,764.31987 787.71387,743.40665 816.12314,714.34435 C 827.5949,702.6089 833.09761,694.34953 847.97168,666.54085 C 865.33887,634.07101 876.714,618.16877 891.66353,605.46037 C 918.78245,582.40693 952.25397,570.59079 1000.5,567.03884 C 1021.2398,565.51194 1166.2516,565.65163 1167.8,567.2 C 1169.8821,569.28208 1169.1518,571.66606 1163.354,581.71462 C 1141.0541,620.3639 1114.9829,649.02622 1091.7112,660.47749 C 1079.5234,666.47479 1075.1006,666.96315 1032.7992,666.98264 C 993.01905,667.00096 988.39626,667.40517 979.30779,671.65987 C 967.76785,677.06221 959.59883,687.50807 941.50419,720 C 923.56066,752.22057 908.52834,772.45083 886.86477,793.53284 C 871.34544,808.63556 862.23262,816.03046 844.79605,827.6709 C 806.24004,853.41041 759.56836,870.16943 708.58985,876.58027 C 697.11578,878.0232 648.23413,879.27988 638,878.39503 z M 539.85247,662.98449 C 532.50761,659.10393 524.27862,646.35412 518.35528,629.67724 C 499.12257,575.52846 444.40569,533.05965 376.47386,519.55518 C 352.14521,514.71878 352.74586,514.742 235.5,514.10401 L 124.5,513.5 L 118.50672,511.24018 C 103.83666,505.7087 85.154834,490.82263 70.732611,473.17277 C 56.956314,456.31339 38.894714,426.32271 40.304724,422.64829 C 40.91648,421.05407 52.156281,420.96641 219.22874,421.25279 C 395.95441,421.55572 397.61271,421.57693 410.5,423.69885 C 478.83893,434.951 526.94466,466.36748 551.49787,515.78053 C 563.00045,538.92935 566.89243,557.9462 567.71758,595.03261 C 568.55793,632.80193 566.14107,650.56635 558.98553,659.21517 C 554.21386,664.98264 546.50784,666.50076 539.85247,662.98449 z M 774.5,663.58836 C 763.5465,658.72004 760.00449,644.14063 760.02322,604 C 760.03516,578.42685 760.90586,565.94514 763.61575,552.5 C 769.9271,521.18633 787.33431,490.95546 810.9856,470.23346 C 838.75433,445.90397 872.72602,431.05519 917.4321,423.70646 C 930.40041,421.57474 931.85748,421.55604 1108.6329,421.25286 C 1277.601,420.96306 1286.8004,421.03748 1287.4381,422.69938 C 1288.3385,425.04578 1282.5998,436.19549 1272.6703,451.39147 C 1251.9421,483.11384 1232.0502,501.99605 1210,510.88091 L 1203.5,513.5 L 1092.5,514.10459 C 973.40582,514.75327 975.08469,514.68292 948.5,520.13855 C 935.32038,522.84322 911.91806,530.59991 899.75833,536.29396 C 856.79442,556.41269 823.66958,590.43808 809.99271,628.5 C 805.82241,640.1057 799.87101,651.62242 795.26045,657.00882 C 789.24694,664.03426 781.22411,666.57691 774.5,663.58836 z M 705.66511,415.00795 C 696.64525,413.87419 696,413.55525 696,410.23065 C 696,407.84506 696.7442,407.03697 700.72012,405.10532 C 714.02969,398.63903 731.08701,385.2743 741.98032,372.77718 C 755.07367,357.7561 763.45362,341.60152 768.28714,322.06377 C 770.38614,313.57935 770.4088,312.2005 770.73273,173.25 L 771.05969,33 L 816.02985,33 L 861,33 L 861,171.53941 C 861,263.49548 860.63938,313.31287 859.92752,319.69691 C 858.39842,333.41002 854.80226,346.57502 849.566,357.62887 C 834.85683,388.68023 809.93915,406.07422 770.02028,413.15638 C 757.10937,415.44696 718.08921,416.56961 705.66511,415.00795 z M 557,387.37223 C 527.73747,385.87172 499.61709,380.24479 479.25,371.81433 L 472,368.81336 L 472,339.90668 C 472,324.00801 472.23007,311 472.51126,311 C 472.79245,311 478.30495,312.60791 484.76126,314.57314 C 509.14421,321.99503 537.40158,327.82886 557,329.48707 C 566.55436,330.29545 587.79,328.4834 597.31711,326.04678 C 613.18106,321.98946 622.53716,314.83981 625.55148,304.47091 C 629.00596,292.58792 625.93379,281.97727 616.22879,272.27227 C 605.33021,261.37369 588.84782,252.68957 553,238.95874 C 521.49804,226.89251 508.74435,220.17332 492.69101,207.18537 C 478.85681,195.99281 466.6145,176.98673 461.97563,159.5 C 458.74198,147.31041 458.15409,123.63123 460.7714,110.99535 C 470.15404,65.697649 506.17389,37.927377 567.15404,28.977392 C 608.61179,22.892686 652.01326,26.981651 685.75,40.150625 L 696,44.151662 L 696,73.575831 C 696,89.759124 695.8526,103 695.67245,103 C 695.49229,103 691.2653,101.23059 686.27914,99.067968 C 672.30983,93.009147 651.07714,86.232269 637.1286,83.380497 C 625.7984,81.064043 622.90638,80.848859 609,81.287558 C 584.82491,82.0502 570.94356,86.893048 560.45264,98.224496 C 547.97573,111.70105 549.30559,128.79272 563.87303,142.18402 C 575.18326,152.58108 589.18992,159.3566 623.40129,170.97995 C 656.43406,182.20287 678.08413,194.30232 695.01085,211 C 712.85448,228.60217 721,247.37149 721,270.88548 C 721,337.62794 679.36416,377.87476 602,385.91553 C 590.98069,387.06081 566.42719,387.85564 557,387.37223 z "
     id="path2187" />
</svg>
